X: 372
T: Lo Yissa Goy
M: 2/4
L: 1/8
K: Fm
|: CFG \
| "Fm"A2 G2 | F2 G2 | A4- | AC FG \
| A2 G2 | "C7"F2 =E2 | "Fm"F4- |1 F :|2 F4 |
|:"Ab"c2 cc | c2 c2 | "Bb"d2 c2 | B3 G \
| "C7"B2 BB | B2 cB |1 "Fm"A2 B2 | c4 :|2 "Fm"A2 "C7"G2 | "Fm"F |
